X: 4541
T: Boscastle Breakdown, The
R: hornpipe
M: 4/4
K: Gmajor
|:D2|G2 Bc d2 B2|cdef g4|G2 Bc d2 B2|A2 A2 A4|
G2 Bc d2 B2|cdef g4|dgfe dcBA|G2 G2 G2:|
|:d2|gdBd gdBd|geBe geBe|gdBd gdBd|A2 A2 A4|
gdBd gdBd|geBe g4|dgfe dcBA|G2 G2 G2:|

